svg/Pictogram/pictograms-aem-0121-severing_of_leg-blade_or_cutter.svg

<?xml version="1.0" encoding="ISO-8859-1" standalone="yes"?>
<svg height="305.909" width="305.909">
  <metadata>
    <rdf:RDF xmlns:cc="http://web.resource.org/cc/" xmlns:dc="http://purl.org/dc/elements/1.1/" xmlns:rdf="http://www.w3.org/1999/02/22-rdf-syntax-ns#">
      <cc:Work rdf:about="">
        <dc:title></dc:title>
        <dc:description></dc:description>
        <dc:subject>
          <rdf:Bag>
            <rdf:li></rdf:li>
          </rdf:Bag>
        </dc:subject>
        <dc:publisher>
          <cc:Agent rdf:about="http://www.unece.org/trans/danger/publi/ghs/pictograms.html">
            <dc:title>Source: UNECE GHS of Classification and Labeling of Chemicals, Source: AEM Pictorial Database, Source: AEM Pictorial Database, Source: AEM Pictorial Database, Source: AEM Pictorial Database</dc:title>
          </cc:Agent>
        </dc:publisher>
        <dc:creator>
          <cc:Agent>
            <dc:title></dc:title>
          </cc:Agent>
        </dc:creator>
        <dc:rights>
          <cc:Agent>
            <dc:title></dc:title>
          </cc:Agent>
        </dc:rights>
        <dc:date></dc:date>
        <dc:format>image/svg+xml</dc:format>
        <dc:type rdf:resource="http://purl.org/dc/dcmitype/StillImage"/>
        <cc:license rdf:resource="http://en.wikipedia.org/wiki/Public_domain"/>
        <dc:language>en</dc:language>
      </cc:Work>
    </rdf:RDF>
  </metadata>
  <defs><marker id="ArrowEnd" markerHeight="3" markerUnits="strokeWidth" markerWidth="4" orient="auto" refX="0" refY="5" viewBox="0 0 10 10"><path d="M 0 0 L 10 5 L 0 10 z"/></marker><marker id="ArrowStart" markerHeight="3" markerUnits="strokeWidth" markerWidth="4" orient="auto" refX="10" refY="5" viewBox="0 0 10 10"><path d="M 10 0 L 0 5 L 10 10 z"/></marker> </defs>
  <g id="g2958" transform="matrix(1.3532768,0,0,1.3532781,-53.207834,-52.192858)">
    <path d="M 98.972 141.397C 100.714 146.476 104.655 151.46 107.522 154.722C 107.85 155.093 108.292 156.081 108.546 156.839C 108.585 157.124 108.608 157.347 108.616 157.515C 105.964 157.784 103.421 156.698 103.393 156.686L 98.4837 154.495L 98.3431 159.866C 98.3392 159.929 98.3392 159.991 98.3392 160.054C 98.3392 167.456 108.159 173.933 114.05 177.147C 114.483 177.386 115.237 178.163 115.737 178.792C 115.87 179.042 115.972 179.241 116.034 179.397C 113.636 180.558 110.87 180.413 110.843 180.409L 105.479 180.034L 107.179 185.124C 109.022 190.581 116.182 193.452 122.499 194.964L 122.472 201.081L 120.46 201.608L 122.499 204.21L 122.499 207.921C 123.347 215.902 132.136 239.097 151.827 244.363C 171.757 249.699 175.479 259.085 175.944 264.378C 175.944 264.378 130.835 264.011 125.167 263.859C 119.507 263.699 102.745 256.843 99.7142 253.761L 99.0032 263.292L 77.347 262.921L 80.6595 141.89L 98.972 141.397zM 111.995 104.632L 111.694 104.046L 108.136 108.073C 106.292 110.175 105.612 113.085 105.612 116.237C 105.612 121.163 107.218 126.569 108.694 130.495L 104.612 132.112L 100.648 128.104L 98.679 133.104C 98.4798 133.608 98.2923 134.163 98.1946 134.69L 80.3431 141.89L 60.2142 88.8934L 90.8392 39.7844L 111.995 104.632" style="stroke:none; fill-rule:evenodd; fill:#000000"/>
    <path d="M 174.393 101.265C 148.897 101.265 128.229 121.933 128.229 147.429C 128.229 172.929 148.897 193.593 174.393 193.593C 199.893 193.593 220.558 172.929 220.558 147.429C 220.558 123.464 201.35 101.308 173.893 101.308L 173.866 84.5184C 176.065 84.5544 176.436 84.5464 176.792 84.5464C 176.792 84.5464 179.237 84.2534 180.698 83.3704C 188.94 78.3474 196.315 76.2924 199.8 78.4134C 199.8 78.4134 196.362 80.8434 194.995 84.6004C 194.077 87.1044 195.901 88.3354 198.155 89.1554C 198.155 89.1554 200.554 89.7224 202.225 89.3864C 211.694 87.4874 219.323 88.0774 221.874 91.2534C 221.874 91.2534 217.808 92.3704 215.241 95.4364C 213.522 97.4764 214.815 99.2534 216.655 100.8C 216.655 100.8 218.71 102.143 220.405 102.401C 229.944 103.858 236.917 107.03 238.222 110.886C 238.222 110.886 234.022 110.542 230.558 112.538C 228.249 113.87 228.854 115.983 230.054 118.061C 230.054 118.061 231.526 120.034 233.026 120.854C 241.495 125.487 246.968 130.847 246.874 134.921C 246.874 134.921 243.046 133.155 239.104 133.85C 236.483 134.319 236.323 136.507 236.737 138.874C 236.737 138.874 237.452 141.229 238.581 142.515C 244.956 149.761 248.257 156.663 246.78 160.464C 246.78 160.464 243.784 157.503 239.847 156.804C 237.222 156.343 236.327 158.343 235.913 160.706C 235.913 160.706 235.772 163.171 236.393 164.761C 239.905 173.757 240.643 181.37 237.956 184.425C 237.956 184.425 236.159 180.624 232.694 178.628C 230.386 177.292 228.858 178.87 227.659 180.948C 227.659 180.948 226.69 183.214 226.725 184.917C 226.956 194.569 225.042 201.983 221.468 203.941C 221.468 203.941 221.073 199.741 218.511 196.683C 216.796 194.632 214.823 195.604 212.979 197.143C 212.979 197.143 211.296 198.936 210.749 200.554C 207.659 209.706 203.331 216.015 199.304 216.628C 199.304 216.628 200.37 212.558 199.007 208.804C 198.093 206.296 195.909 206.523 193.655 207.343C 193.655 207.343 191.456 208.453 190.39 209.788C 184.354 217.32 178.132 221.777 174.136 220.976C 174.136 220.976 176.534 217.515 176.534 213.519C 176.534 210.855 174.397 210.32 172.003 210.32C 172.003 210.32 169.558 210.605 168.097 211.495C 159.854 216.515 152.479 218.574 148.991 216.453C 148.991 216.453 152.432 214.015 153.8 210.261C 154.714 207.761 152.893 206.531 150.636 205.706C 150.636 205.706 148.241 205.144 146.565 205.484C 137.1 207.378 129.468 206.792 126.925 203.609C 126.925 203.609 130.983 202.495 133.554 199.425C 135.265 197.386 133.975 195.612 132.136 194.073C 132.136 194.073 130.081 192.714 128.393 192.46C 118.847 191.007 111.874 187.843 110.569 183.979C 110.569 183.979 114.772 184.319 118.233 182.327C 120.538 180.999 119.932 178.886 118.737 176.804C 118.737 176.804 117.265 174.827 115.765 174.011C 107.292 169.382 101.827 164.026 101.917 159.944C 101.917 159.944 105.749 161.706 109.686 161.015C 112.308 160.554 112.464 158.358 112.042 155.995C 112.042 155.995 111.335 153.636 110.21 152.358C 103.831 145.108 100.527 138.202 102.011 134.405C 102.011 134.405 105.007 137.37 108.94 138.061C 111.561 138.526 112.46 136.518 112.874 134.159C 112.874 134.159 113.015 131.698 112.393 130.112C 108.878 121.112 108.136 113.499 110.827 110.433C 110.827 110.433 112.628 114.245 116.089 116.245C 118.397 117.577 119.929 116.003 121.128 113.917C 121.128 113.917 122.1 111.651 122.058 109.948C 121.831 100.296 123.737 92.8824 127.315 90.9254C 127.315 90.9254 127.706 95.1204 130.272 98.1834C 131.983 100.222 133.964 99.2654 135.796 97.7184C 135.796 97.7184 137.487 95.9294 138.03 94.3154C 141.12 85.1594 145.448 78.8504 149.479 78.2334C 149.479 78.2334 148.405 82.3114 149.776 86.0614C 150.686 88.5654 152.874 88.3394 155.128 87.5154C 155.128 87.5154 157.339 86.4054 158.405 85.0774C 164.436 77.5384 170.663 73.0894 174.659 73.8864C 174.659 73.8864 172.265 77.3504 172.265 81.3474C 172.265 83.0504 173.136 83.8824 174.386 84.2574L 174.393 101.265" style="stroke:none; fill-rule:evenodd; fill:#000000"/>
    <path d="M 177.124 145.448C 177.124 146.468 176.292 147.3 175.268 147.3C 174.241 147.3 173.409 146.468 173.409 145.448C 173.409 144.417 174.241 143.589 175.268 143.589C 176.292 143.589 177.124 144.417 177.124 145.448" style="stroke:none; fill-rule:evenodd; fill:#000000"/>
    <path d="M 177.124 145.448C 177.124 146.468 176.292 147.3 175.268 147.3C 174.241 147.3 173.409 146.468 173.409 145.448C 173.409 144.417 174.241 143.589 175.268 143.589C 176.292 143.589 177.124 144.417 177.124 145.448z" style="stroke:#000000; stroke-width:2.75; fill:none"/>
    <path d="M 29.6204 267.288L 2.62042 267.288" style="stroke:#000000; stroke-width:0.5; fill:none"/>
    <path d="M 38.6204 276.288L 38.6204 303.288" style="stroke:#000000; stroke-width:0.5; fill:none"/>
    <path d="M 29.6204 38.6204L 2.62042 38.6204" style="stroke:#000000; stroke-width:0.5; fill:none"/>
    <path d="M 38.6204 29.6204L 38.6204 2.62042" style="stroke:#000000; stroke-width:0.5; fill:none"/>
    <path d="M 276.288 38.6204L 303.288 38.6204" style="stroke:#000000; stroke-width:0.5; fill:none"/>
    <path d="M 267.288 29.6204L 267.288 2.62042" style="stroke:#000000; stroke-width:0.5; fill:none"/>
    <path d="M 276.288 267.288L 303.288 267.288" style="stroke:#000000; stroke-width:0.5; fill:none"/>
    <path d="M 267.288 276.288L 267.288 303.288" style="stroke:#000000; stroke-width:0.5; fill:none"/>
  </g>
</svg>

<svg viewBox="0 0 305.91 305.91"><g transform="matrix(1.35328 0 0 1.35328-53.21-52.19)"><g fill-rule="evenodd"><path d="m98.97 141.4c1.742 5.079 5.683 10.06 8.55 13.325.328.371.77 1.359 1.024 2.117.039.285.062.508.07.676-2.652.269-5.195-.817-5.223-.829l-4.909-2.191-.141 5.371c-.004.063-.004.125-.004.188 0 7.402 9.82 13.879 15.711 17.09.433.239 1.187 1.016 1.687 1.645.133.25.235.449.297.605-2.398 1.161-5.164 1.016-5.191 1.012l-5.364-.375 1.7 5.09c1.843 5.457 9 8.328 15.32 9.84l-.027 6.117-2.01.527 2.039 2.602v3.711c.848 7.981 9.637 31.18 29.328 36.442 19.93 5.336 23.652 14.722 24.12 20.01 0 0-45.11-.367-50.777-.519-5.66-.16-22.422-7.02-25.453-10.1l-.711 9.531-21.656-.371 3.313-121.03 18.313-.493m13.02-36.765l-.301-.586-3.558 4.03c-1.844 2.102-2.524 5.01-2.524 8.164 0 4.926 1.606 10.332 3.082 14.258l-4.082 1.617-3.964-4.01-1.969 5c-.199.504-.387 1.059-.484 1.586l-17.851 7.2-20.13-52.997 30.625-49.11 21.16 64.848"/><path d="m174.39 101.27c-25.496 0-46.16 20.668-46.16 46.16 0 25.5 20.668 46.16 46.16 46.16 25.5 0 46.16-20.664 46.16-46.16 0-23.965-19.21-46.12-46.665-46.12l-.027-16.79c2.199.036 2.57.028 2.926.028 0 0 2.445-.293 3.906-1.176 8.242-5.02 15.617-7.078 19.1-4.957 0 0-3.438 2.43-4.805 6.187-.918 2.504.906 3.735 3.16 4.555 0 0 2.399.567 4.07.231 9.469-1.899 17.1-1.309 19.649 1.867 0 0-4.066 1.117-6.633 4.183-1.719 2.04-.426 3.817 1.414 5.364 0 0 2.055 1.343 3.75 1.601 9.539 1.457 16.512 4.629 17.817 8.485 0 0-4.2-.344-7.664 1.652-2.309 1.332-1.704 3.445-.504 5.523 0 0 1.472 1.973 2.972 2.793 8.469 4.633 13.942 9.993 13.848 14.07 0 0-3.828-1.766-7.77-1.071-2.621.469-2.781 2.657-2.367 5.02 0 0 .715 2.355 1.844 3.641 6.375 7.246 9.676 14.15 8.199 17.949 0 0-2.996-2.961-6.933-3.66-2.625-.461-3.52 1.539-3.934 3.902 0 0-.141 2.465.48 4.055 3.512 8.996 4.25 16.609 1.563 19.664 0 0-1.797-3.801-5.262-5.797-2.308-1.336-3.836.242-5.03 2.32 0 0-.969 2.266-.934 3.969.231 9.652-1.683 17.07-5.257 19.02 0 0-.395-4.2-2.957-7.258-1.715-2.051-3.688-1.079-5.532.46 0 0-1.683 1.793-2.23 3.411-3.09 9.152-7.418 15.461-11.445 16.07 0 0 1.066-4.07-.297-7.824-.914-2.508-3.098-2.281-5.352-1.461 0 0-2.199 1.11-3.265 2.445-6.04 7.532-12.258 11.989-16.254 11.188 0 0 2.398-3.461 2.398-7.457 0-2.664-2.137-3.199-4.531-3.199 0 0-2.445.285-3.906 1.175-8.243 5.02-15.618 7.079-19.11 4.958 0 0 3.441-2.438 4.809-6.192.914-2.5-.907-3.73-3.164-4.555 0 0-2.395-.562-4.071-.222-9.465 1.894-17.1 1.308-19.64-1.875 0 0 4.058-1.114 6.629-4.184 1.711-2.039.421-3.813-1.418-5.352 0 0-2.055-1.359-3.743-1.613-9.546-1.453-16.519-4.617-17.824-8.481 0 0 4.203.34 7.664-1.652 2.305-1.328 1.699-3.441.504-5.523 0 0-1.472-1.977-2.972-2.793-8.473-4.629-13.938-9.985-13.848-14.07 0 0 3.832 1.762 7.769 1.071 2.622-.461 2.778-2.657 2.356-5.02 0 0-.707-2.359-1.832-3.637-6.379-7.25-9.683-14.156-8.199-17.953 0 0 2.996 2.965 6.929 3.656 2.621.465 3.52-1.543 3.934-3.902 0 0 .141-2.461-.481-4.047-3.515-9-4.257-16.613-1.566-19.679 0 0 1.801 3.812 5.262 5.812 2.308 1.332 3.84-.242 5.04-2.328 0 0 .972-2.266.93-3.969-.227-9.652 1.679-17.07 5.257-19.02 0 0 .391 4.195 2.957 7.258 1.711 2.039 3.692 1.082 5.524-.465 0 0 1.691-1.789 2.234-3.403 3.09-9.156 7.418-15.465 11.449-16.08 0 0-1.074 4.078.297 7.828.91 2.504 3.098 2.278 5.352 1.454 0 0 2.211-1.11 3.277-2.438 6.03-7.539 12.258-11.988 16.254-11.191 0 0-2.394 3.464-2.394 7.461 0 1.703.871 2.535 2.121 2.91l.007 17.01"/><path d="m177.12 145.45c0 1.02-.832 1.852-1.856 1.852-1.027 0-1.859-.832-1.859-1.852 0-1.031.832-1.859 1.859-1.859 1.024 0 1.856.828 1.856 1.859"/></g><path d="m177.12 145.45c0 1.02-.832 1.852-1.856 1.852-1.027 0-1.859-.832-1.859-1.852 0-1.031.832-1.859 1.859-1.859 1.024 0 1.856.828 1.856 1.859z" fill="none" stroke="#000" stroke-width="2.75"/></g></svg>
